X: 77
T:Rigadoon. JaW.077
M:6/4
Q:1/4=200
S:James Winder Ms, Lancashire, 1835-41
R:Rigadoon
O:England
A:Wyresdale,Lancashire
H:1/8
Z:vmp.Chris Partington, Aug 2004
K:G
EF|G4E2 B2G2E2|e4f2 g2f2e2|d2c2B2 A4G2|G6-G4:||:GA|B4G2 d2B2G2|!
A4F2 c2A2F2|G4E2 B2G2E2|F4^D2 E2F2G2|A2F2B2 F6|E6-E4:|]
